src/apps/symbolic/budgie-foldertrack-symbolic.svg

<svg width="16" height="16" version="1.1" viewBox="0 0 16 16" xmlns="http://www.w3.org/2000/svg">
 <path d="m3.5 5a2.5 2.5 0 0 0-2.5 2.5 2.5 2.5 0 0 0 2.5 2.5 2.5 2.5 0 0 0 2.5-2.5 2.5 2.5 0 0 0-2.5-2.5zm0 1a1.5 1.5 0 0 1 1.5 1.5 1.5 1.5 0 0 1-1.5 1.5 1.5 1.5 0 0 1-1.5-1.5 1.5 1.5 0 0 1 1.5-1.5z" fill="#363636" stop-color="#000000" stroke-width="0"/>
 <path d="m8.5 3a1.5 1.5 0 0 0-1.5 1.5 1.5 1.5 0 0 0 1.5 1.5 1.5 1.5 0 0 0 1.5-1.5 1.5 1.5 0 0 0-1.5-1.5zm0 1a0.5 0.5 0 0 1 0.5 0.5 0.5 0.5 0 0 1-0.5 0.5 0.5 0.5 0 0 1-0.5-0.5 0.5 0.5 0 0 1 0.5-0.5z" fill="#363636" stop-color="#000000" stroke-width="0"/>
 <path d="m8.5 9a1.5 1.5 0 0 0-1.5 1.5 1.5 1.5 0 0 0 1.5 1.5 1.5 1.5 0 0 0 1.5-1.5 1.5 1.5 0 0 0-1.5-1.5zm0 1a0.5 0.5 0 0 1 0.5 0.5 0.5 0.5 0 0 1-0.5 0.5 0.5 0.5 0 0 1-0.5-0.5 0.5 0.5 0 0 1 0.5-0.5z" fill="#363636" stop-color="#000000" stroke-width="0"/>
 <path d="m13.5 6a1.5 1.5 0 0 0-1.5 1.5 1.5 1.5 0 0 0 1.5 1.5 1.5 1.5 0 0 0 1.5-1.5 1.5 1.5 0 0 0-1.5-1.5zm0 1a0.5 0.5 0 0 1 0.5 0.5 0.5 0.5 0 0 1-0.5 0.5 0.5 0.5 0 0 1-0.5-0.5 0.5 0.5 0 0 1 0.5-0.5z" fill="#363636" stop-color="#000000" stroke-width="0"/>
 <path d="m13.5 0a1.5 1.5 0 0 0-1.5 1.5 1.5 1.5 0 0 0 1.5 1.5 1.5 1.5 0 0 0 1.5-1.5 1.5 1.5 0 0 0-1.5-1.5zm0 1a0.5 0.5 0 0 1 0.5 0.5 0.5 0.5 0 0 1-0.5 0.5 0.5 0.5 0 0 1-0.5-0.5 0.5 0.5 0 0 1 0.5-0.5z" fill="#363636" stop-color="#000000" stroke-width="0"/>
 <path d="m13.5 12a1.5 1.5 0 0 0-1.5 1.5 1.5 1.5 0 0 0 1.5 1.5 1.5 1.5 0 0 0 1.5-1.5 1.5 1.5 0 0 0-1.5-1.5zm0 1a0.5 0.5 0 0 1 0.5 0.5 0.5 0.5 0 0 1-0.5 0.5 0.5 0.5 0 0 1-0.5-0.5 0.5 0.5 0 0 1 0.5-0.5z" fill="#363636" stop-color="#000000" stroke-width="0"/>
</svg>

<svg xmlns="http://www.w3.org/2000/svg" width="16" height="16">
    <path fill="#050505" fill-opacity=".7" d="M3.5 5A2.5 2.5 0 0 0 1 7.5 2.5 2.5 0 0 0 3.5 10 2.5 2.5 0 0 0 6 7.5 2.5 2.5 0 0 0 3.5 5zm0 1A1.5 1.5 0 0 1 5 7.5 1.5 1.5 0 0 1 3.5 9 1.5 1.5 0 0 1 2 7.5 1.5 1.5 0 0 1 3.5 6zM8.5 3A1.5 1.5 0 0 0 7 4.5 1.5 1.5 0 0 0 8.5 6 1.5 1.5 0 0 0 10 4.5 1.5 1.5 0 0 0 8.5 3zm0 1a.5.5 0 0 1 .5.5.5.5 0 0 1-.5.5.5.5 0 0 1-.5-.5.5.5 0 0 1 .5-.5zM8.5 9A1.5 1.5 0 0 0 7 10.5 1.5 1.5 0 0 0 8.5 12a1.5 1.5 0 0 0 1.5-1.5A1.5 1.5 0 0 0 8.5 9zm0 1a.5.5 0 0 1 .5.5.5.5 0 0 1-.5.5.5.5 0 0 1-.5-.5.5.5 0 0 1 .5-.5zM13.5 6A1.5 1.5 0 0 0 12 7.5 1.5 1.5 0 0 0 13.5 9 1.5 1.5 0 0 0 15 7.5 1.5 1.5 0 0 0 13.5 6zm0 1a.5.5 0 0 1 .5.5.5.5 0 0 1-.5.5.5.5 0 0 1-.5-.5.5.5 0 0 1 .5-.5zM13.5 0A1.5 1.5 0 0 0 12 1.5 1.5 1.5 0 0 0 13.5 3 1.5 1.5 0 0 0 15 1.5 1.5 1.5 0 0 0 13.5 0zm0 1a.5.5 0 0 1 .5.5.5.5 0 0 1-.5.5.5.5 0 0 1-.5-.5.5.5 0 0 1 .5-.5zM13.5 12a1.5 1.5 0 0 0-1.5 1.5 1.5 1.5 0 0 0 1.5 1.5 1.5 1.5 0 0 0 1.5-1.5 1.5 1.5 0 0 0-1.5-1.5zm0 1a.5.5 0 0 1 .5.5.5.5 0 0 1-.5.5.5.5 0 0 1-.5-.5.5.5 0 0 1 .5-.5z"/>
</svg>
